!!!OTL: ICH WEISS MIR ETWAS LIEBES AUF GOTTES WEITER WELT
!!!ARE: Europa, Mitteleuropa, Deutschland, Rheinland, Allenbach
!!!SCT: B0262
!!!YEM: Copyright 1995, estate of Helmut Schaffrath.
**kern
*ICvox
*Ivox
*M4/4
*k[f#c#]
*D:
{4a
=1
8a
8b
4b
4f#
4dd
=2
2dd
16ee
16dd
8cc#}
{8e
8f#
=3
8g
8f#
4g
8b
8a
4g
=4
2f#
4r}
{4a
=5
8a
8b
4b
4f#
4dd
=6
2dd
16ee
16dd
8cc#}
{8e
8f#
=7
8g
8f#
4g
8b
8a
4g
=8
2f#
4r}
{4dd
=9
4cc#
4b
8g
8a
8cc#
8b
=10
4b
4a
4r}
{4a
=11
4g
16f#
16g
16b
16a
4e
4g
=12
2f#
4r}
{4a
=13
4dd
4cc#
8.ee
16dd
16cc#
16b
8a
=14
4dd
4b
4r}
{4g
=15
8e
8f#
8g
8b
8a
16g
16f#
4e
=16
2d
4r}
==
!!!AGN: Stimmungs - Lied, Sehnsucht, Heimat, Heimweh
!!!ONB: ESAC (Essen Associative Code) Database: BOEHME
!!!AMT: simple quadruple
!!!AIN: vox
!!!EED: Helmut Schaffrath
!!!EEV: 1.0
*-
